X: 1367
T: An Raibh Tú Ag An gCarraig?
R: waltz
M: 3/4
K: Adorian
|e2 fg a2-|~ab c'2 ba|b2 (3age {g}a2|He5|
{g}ab c'2 ba|b2 (3age {g}a2|{f}ga b2 a2-|az ab/c'/ b3 a|
{f}g/z/ ef ~g2|a2 z{g}a-Ta e2-|T=fe dG B2|A2-AB c{d}c|
{g}aTa g/Te/d/A/ B2|{_e}e2-T=fe d<B|A4 GA|B5|
A2 Bc B2|HA4 d2|e2 fg a2-|~ab c'2 ba|b2 (3age {g}a2|He5|
{g}ab c'2 ba|b2 (3age {g}a2|{f}ga b2 a2-|az ab/c'/ b3 a|
{f}g2 ef ~g2|a2 z{g}a-Ta e2-|T=fe dG B2|A2-AB c{d}c|
{g}aTa g/Te/d/A/ B2|{_e}e2-T=fe d<B|A4 GA|B5|
A2 Bc B2|HA4|

